X:1
T:E  Major Samuel Holyoke, 1803
T:Isaac Watts, 1717 (Psalm 117, Version 1)      86. 86. (C. M.)
T:Palermo Transcribed from The Columbian Repository, 1803.
%%score [ 1 2 3 4 ]
L:1/8
Q:1/4=250
M:3/2
K:Eb
V:1 treble nm="Tr." snm="Tr."
V:2 treble nm="C." snm="C."
V:3 treble-8 nm="T." snm="T."
V:4 bass nm="B." snm="B."
V:1
 G4 G2 G2 G2 G2 | G8 G4 | A8 z4 | =A4 A2 A2 A2 A2 | B8 =A4 | B8 z4 | B4 B2 B2 B2 B2 | B8 z4 | %8
 c8 z4 | B8 A4 | G8 z4 | %11
"^Each with a  diff'rent tongue;                                            In      eve  –   ry      lan–guage       learn       his       word,          learn     his    word,  In" B8 B2 B2 | %12
 B8 =A4 | B8 z4 | z12 | z4 z4 B4 | c8 d4 | (e4 B4) A4 | G8 F4 | G8 z4 | (c4 B4) =A4 | B8 F4 | %22
"^every language learn his word And let his name be sung.  And let his   name _______    be     sung.                              His mercy reigns through" G6 B2 A2 F2 | %23
 G6 B2 A2 F2 | G6 A2 B2 c2 | (G4 F4) B4 | B8 e4 | (e2 dc B4) TA4 | G12 || z12 | z8 e4 | d8 c4 | %32
 B8 e4 | %33
"^eve – ry land, through eve–ry       land;                                                                         His     mer   –  cy reigns  through eve    –    ry     land,  Pro–" d8 d4 | %34
 e8 d4 | (e4 d4) c4 | B8 z4 | z12 | z12 | z4 z4 =A4 | (B4 =A4) B4 | B8 B4 | B8 =A4 | B8 B4 | %44
"^claim his grace abroad;                              Proclaim his grace, Proclaim his grace  abroad;             For  ev – er firm  his  truth shall stand,  his" e6 f2 g2 f2 | %45
 e6 z2 z4 | z4 z2 c2 e2 d2 | e6 A2 G2 c2 | B8 A4 | G8 z4 | z8 B4 | d8 d4 | d8 B4 | B8 G4 | A8 A4 | %55
"^truth shall stand,                                                                                                                      Praise ye the faithful God. For ever firm his truth shall" B8 B4 | %56
 B8 z4 | z12 | z12 | z12 | e4 e2 d2 c2 c2 | d8 z2 d2 | e2 e2 d2 d2 e2 d2 | %63
"^stand, For ever firm his truth shall stand,  Praise ye the faith – ful   God.        Praise.     praise,     praise.       Praise ye the  faith–ful God." e6 f2 g2 e2 | %64
 d6 d2 d2 d2 | e8 z4 | B8 A2 G2 | F8 F4 | F8 z4 | B8 z4 | c8 z4 | c8 z4 | e8 e2 d2 | B8 A4 | G12 |] %75
V:2
"^O all ye nations, praise the Lord,          O  all ye nations, praise the Lord,          O all ye nations,  praise,    praise,      praise the Lord," E4 E2 E2 E2 E2 | %1
 E8 E4 | E8 z4 | F4 F2 F2 F2 F2 | F8 F4 | F8 z4 | F4 F2 F2 F2 F2 | G8 z4 | A8 z4 | E8 D4 | E8 z4 | %11
"^Each with a diff'rent tongue;" G8 A2 G2 | F8 E4 | D8 z4 | z12 | z12 | z12 | z12 | %18
"^learn       his        word,        learn       his    word," B,8 B,4 | B,8 z4 | E8 C4 | D8 z4 | %22
 z12 | z12 | z12 | %25
 z4 z4"^And   let    his   name ______    be     sung.                                                    His  mer – cy" F4 | %26
 G8 G4 | (F4 E4) D4 | E12 || z12 | z12 | z8 C4 | F8 F4 | %33
"^reigns ______ through eve – ry        land;                                                 His  mer–cy,   His   mer  –  cy  reigns  through  eve    –    ry     land," (F12 | %34
 G8) A4 | G4 (F6 E2) | D8 z4 | z12 | z4 z4 F4 | G4 F4 F4 | F8 F4 | G8 F4 | (G4 F4) E4 | D8 z4 | %44
 z12 | %45
 z4 z4 z2"^Proclaim his grace abroad,  Proclaim  his grace  abroad;                For   ev – er firm his truth shall stand,  his" F2 | %46
 G6 A2 B2 A2 | G6 D2 E2 F2 | G8 F4 | E8 z4 | z8 G4 | B8 B4 | B8 A4 | G8 E4 | E8 F4 | %55
"^truth shall stand,        Praise ye the faithful God,                       Praise ye the faithful God,   the  faithful  God.   For ever firm his truth shall" E8 A4 | %56
 G8 z4 | A4 A2 G2 F2 E2 | D6 z2 z4 | B4 B2 A2 G2 F2 | G6 F2 F2 F2 | F8 z2 F2 | G2 G2 F2 F2 B2 A2 | %63
 G6 B2 B2 B2 | B6 B2 B2 B2 | B8 z4 | E8 D2 E2 | C8 C4 | B,8 z4 | G8 z4 | A8 z4 | =A8 z4 | %72
 B8 B2 A2 | G8 F4 | E12 |] %75
V:3
 B4 B2 B2 B2 B2 | e8 _d4 | c8 z4 | c4 c2 c2 c2 c2 | [df]8 [ce]4 | d8 z4 | d4 d2 d2 d2 d2 | e8 z4 | %8
 f8 z4 | g8 f4 | e8 z4 | %11
"^Each with a diff'rent tongue;  In    eve  – ry  language, In    eve   –   ry     lan –  guage   learn       his       word,       learn        his    word,  In" e8 f2 e2 | %12
 d8 c4 | B8 B4 | c8 d4 | e4 e4 f4 | g8 a4 | g8 f4 | e8 d4 | e8 z4 | e8 f4 | f8 B4 | %22
"^every language learn his word And let his name be sung.  And   let    his    name ______    be     sung               His mercy reigns through every" e6 g2 f2 d2 | %23
 e6 g2 f2 d2 | e6 d2 e2 e2 | (e4 d4) d4 | e8 B4 | (c2 BA G4) TF4 | E12 || z8 e4 | d8 c4 | B8 e4 | %32
 d8 c4 | %33
"^land;  ________  through eve –  ry      land,  His  mer  –  cy   reigns,   His   mercy,    His     mer  –   cy  reigns through eve    –    ry      land," B12- | %34
 B8 B4 | (c4 B4) =A4 | B8 B4 | (e4 d4) B4 | B8 d4 | e4 d4 B4 | (d4 c4) d4 | e8 d4 | (e2 dc d4) c4 | %43
 B8 z4 | %44
 z4 z4"^Pro–claim his grace abroad,                Proclaim, proclaim his grace abroad;                  For   ev –er firm his truth shall  stand,  his" B4 | %45
 e6 f2 g2 f2 | e6 z2 z2 f2 | g6 f2 e2 e2 | e8 d4 | e8 z4 | z8 e4 | f8 f4 | f8 d4 | e8 B4 | c8 d4 | %55
"^truth shall stand,                                                                              Praise ye the faithful,  faith    –    ful         God.    For ever firm his truth shall" e8 d4 | %56
 e8 z4 | z12 | z12 | g4 g2 f2 e2 d2 | (c6 B2) =A4 | B8 z2 B2 | B2 B2 B2 B2 B2 B2 | %63
"^stand, For ever firm his truth shall stand,  Praise ye the faith – ful   God.        Praise.     praise,     praise.       Praise ye the  faith–ful God." B6 B2 e2 e2 | %64
 f6 f2 f2 f2 | g8 z4 | g8 f2 e2 | (e6 f2) e4 | d8 z4 | e8 z4 | e8 z4 | f8 z4 | g8 g2 f2 | e8 d4 | %74
 e12 |] %75
V:4
 E,4 E,2 E,2 E,2 E,2 | E,8 E,4 | A,8 z4 | F,4 F,2 F,2 F,2 F,2 | F,8 F,4 | B,8 z4 | %6
 B,4 B,2 B,2 B,2 B,2 | E8 z4 | A,8 z4 | B,8 B,4 | E,8 z4 | %11
"^Each with a diff'rent tongue;                     In    eve  –  ry      language learn his   word,   In      every language            learn       his    word," E,8 D,2 E,2 | %12
 F,8 F,4 | B,,8 z4 | z8 B,,4 | C,8 D,4 | E,4 E,4 F,4 | G,8 A,4 | B,6 B,2 B,,2 B,,2 | E,8 z4 | %20
 (A,4 G,4) F,4 | B,8 z4 | z12 | %23
 z4 z4 z2"^And  let his name be  sung,    And   let  his   name                be   sung.                                                                      His" B,,2 | %24
 E,6 F,2 G,2 A,2 | B,8 A,4 | G,8 G,4 | (A,4 B,4) B,,4 | E,12 || z12 | z12 | z12 | z8 F,4 | %33
"^mer–cy  reigns  through eve–ry    land;                       His     mer  –  cy     reigns,   His    mer   –  cy  reigns through eve     –    ry     land," B,8 A,4 | %34
 G,8 F,4 | (E,4 F,4) F,4 | B,,8 z4 | z4 z4 B,,4 | (E,4 D,4) B,,4 | (E,4 F,4) F,4 | (B,4 F,4) B,4 | %41
 E,8 B,,4 | (E,4 F,4) F,4 | B,,8 z4 | z12 | %45
 z4 z4"^Pro – claim his grace a–broad,  Proclaim his grace abroad;                For   ev – er firm his truth shall stand,  his" B,,4 | %46
 E,6 F,2 G,2 F,2 | E,6 F,2 G,2 A,2 | B,8 B,,4 | E,8 z4 | z8 E,4 | B,8 B,4 | B,8 B,,4 | E,8 E,4 | %54
 A,8 F,4 | %55
"^truth shall stand,                                        Praise ye the faithful God,               Praise  ye        the  faithful  God.    For ever firm his truth shall" G,8 F,4 | %56
 E,8 z4 | z12 | B,4 B,2 A,2 G,2 F,2 | E,6 z2 z2 B,,2 | E,6 F,2 F,2 F,2 | B,,8 z2 B,,2 | %62
 E,2 G,2 B,2 A,2 G,2 F,2 | E,6 D,2 E,2 G,2 | B,6 B,2 B,2 B,2 | E8 z4 | E,8 F,2 G,2 | A,8 A,4 | %68
 B,8 z4 | E,8 z4 | A,8 z4 | F,8 z4 | B,8 B,2 B,2 | B,8 [B,,B,]4 | E,12 |] %75

